svg/fluentui-system-icons/ic_fluent_calendar_work_week_16_regular.svg

<svg width="16" height="16" viewBox="0 0 16 16" fill="none" xmlns="http://www.w3.org/2000/svg">
<path d="M5.5 5C5.22386 5 5 5.22386 5 5.5V7.5C5 7.77614 5.22386 8 5.5 8H10.5C10.7761 8 11 7.77614 11 7.5V5.5C11 5.22386 10.7761 5 10.5 5H5.5ZM6 7V6H10V7H6ZM4.5 2C3.11929 2 2 3.11929 2 4.5V11.5C2 12.8807 3.11929 14 4.5 14H11.5C12.8807 14 14 12.8807 14 11.5V4.5C14 3.11929 12.8807 2 11.5 2H4.5ZM3 4.5C3 3.67157 3.67157 3 4.5 3H11.5C12.3284 3 13 3.67157 13 4.5V11.5C13 12.3284 12.3284 13 11.5 13H4.5C3.67157 13 3 12.3284 3 11.5V4.5Z" fill="#212121"/>
</svg>

<svg xmlns="http://www.w3.org/2000/svg" width="16" height="16"><path d="M5.5 5a.5.5 0 0 0-.5.5v2a.5.5 0 0 0 .5.5h5a.5.5 0 0 0 .5-.5v-2a.5.5 0 0 0-.5-.5h-5ZM6 7V6h4v1H6ZM4.5 2A2.5 2.5 0 0 0 2 4.5v7A2.5 2.5 0 0 0 4.5 14h7a2.5 2.5 0 0 0 2.5-2.5v-7A2.5 2.5 0 0 0 11.5 2h-7ZM3 4.5A1.5 1.5 0 0 1 4.5 3h7A1.5 1.5 0 0 1 13 4.5v7a1.5 1.5 0 0 1-1.5 1.5h-7A1.5 1.5 0 0 1 3 11.5v-7Z"/></svg>
